icons/lines/bluetooth-circle.svg

<svg xmlns="http://www.w3.org/2000/svg" width="24" height="24" viewBox="0 0 24 24" fill="none" stroke="currentColor" stroke-width="2" stroke-linecap="round" stroke-linejoin="round" >
  <path d="M8.58984 15.56L15.2098 9.49002C15.4898 9.24002 15.4798 8.84004 15.1898 8.60004L13.1299 6.88004C12.5899 6.43004 12.1599 6.64003 12.1599 7.34003V16.67C12.1599 17.37 12.5999 17.57 13.1299 17.13L15.1898 15.41C15.4798 15.17 15.4898 14.77 15.2098 14.52L8.58984 8.45005" stroke-miterlimit="10"/>
  <path d="M12 22C17.5228 22 22 17.5228 22 12C22 6.47715 17.5228 2 12 2C6.47715 2 2 6.47715 2 12C2 17.5228 6.47715 22 12 22Z" stroke-miterlimit="10"/>
  </svg>

<svg xmlns="http://www.w3.org/2000/svg" width="24" height="24" viewBox="0 0 24 24" fill="none" stroke="currentColor" stroke-width="2" stroke-linecap="round" stroke-linejoin="round">
  <path d="m8.59 15.56 6.62-6.07a.57.57 0 0 0-.02-.89l-2.06-1.72c-.54-.45-.97-.24-.97.46v9.33c0 .7.44.9.97.46l2.06-1.72a.57.57 0 0 0 .02-.89L8.59 8.45" />
  <circle cx="12" cy="12" r="10" />
</svg>
